public/cloud-icons/azure/identity/azure-ad-connect-health.svg

<?xml version="1.0" encoding="UTF-8" standalone="no"?>
<!-- Generated by Microsoft Visio, SVG Export Azure AD Connect Health.svg Page-1 -->

<svg
   xmlns:dc="http://purl.org/dc/elements/1.1/"
   xmlns:cc="http://creativecommons.org/ns#"
   xmlns:rdf="http://www.w3.org/1999/02/22-rdf-syntax-ns#"
   xmlns:svg="http://www.w3.org/2000/svg"
   xmlns="http://www.w3.org/2000/svg"
   xmlns:sodipodi="http://sodipodi.sourceforge.net/DTD/sodipodi-0.dtd"
   xmlns:inkscape="http://www.inkscape.org/namespaces/inkscape"
   width="0.78740907in"
   height="0.74800777in"
   viewBox="0 0 56.693361 53.856701"
   xml:space="preserve"
   class="st10"
   version="1.1"
   id="svg80"
   sodipodi:docname="Azure AD Connect Health.svg"
   style="font-size:12px;overflow:visible;color-interpolation-filters:sRGB;fill:none;fill-rule:evenodd;stroke-linecap:square;stroke-miterlimit:3"
   inkscape:version="0.92.5 (2060ec1f9f, 2020-04-08)"><metadata
   id="metadata84"><rdf:RDF><cc:Work
       rdf:about=""><dc:format>image/svg+xml</dc:format><dc:type
         rdf:resource="http://purl.org/dc/dcmitype/StillImage" /></cc:Work></rdf:RDF></metadata><sodipodi:namedview
   pagecolor="#ffffff"
   bordercolor="#666666"
   borderopacity="1"
   objecttolerance="10"
   gridtolerance="10"
   guidetolerance="10"
   inkscape:pageopacity="0"
   inkscape:pageshadow="2"
   inkscape:window-width="640"
   inkscape:window-height="480"
   id="namedview82"
   showgrid="false"
   inkscape:zoom="1.4523234"
   inkscape:cx="37.795237"
   inkscape:cy="35.889642"
   inkscape:window-x="0"
   inkscape:window-y="0"
   inkscape:window-maximized="0"
   inkscape:current-layer="svg80" />
	<style
   type="text/css"
   id="style2">
	<![CDATA[
		.st1 {fill:#50e6ff;stroke:none;stroke-linecap:butt;stroke-width:34}
		.st2 {fill:#ffffff;stroke:none;stroke-linecap:butt;stroke-width:34}
		.st3 {fill:url(#grad0-12);stroke:none;stroke-linecap:butt;stroke-width:34}
		.st4 {fill:#53b1e0;stroke:none;stroke-linecap:butt;stroke-width:34}
		.st5 {fill:#9cebff;stroke:none;stroke-linecap:butt;stroke-width:34}
		.st6 {fill:url(#grad0-20);stroke:none;stroke-linecap:butt;stroke-width:34}
		.st7 {fill:#f04049}
		.st8 {stroke:none;stroke-linecap:butt;stroke-width:34}
		.st9 {fill:#ffffff}
		.st10 {fill:none;fill-rule:evenodd;font-size:12px;overflow:visible;stroke-linecap:square;stroke-miterlimit:3}
	]]>
	</style>

	<defs
   id="Patterns_And_Gradients">
		<linearGradient
   id="grad0-12"
   x1="0"
   y1="57.982622"
   x2="31.862796"
   y2="57.982622"
   gradientTransform="scale(0.73722343,1.3564409)"
   gradientUnits="userSpaceOnUse">
			<stop
   offset="0"
   stop-color="#1988d9"
   stop-opacity="1"
   id="stop4" />
			<stop
   offset="0.9"
   stop-color="#54aef0"
   stop-opacity="1"
   id="stop6" />
		</linearGradient>
		<linearGradient
   id="grad0-20"
   x1="0"
   y1="111.69615"
   x2="25.359929"
   y2="111.69615"
   gradientTransform="scale(1.1246088,0.88919807)"
   gradientUnits="userSpaceOnUse">
			<stop
   offset="0.1"
   stop-color="#54aef0"
   stop-opacity="1"
   id="stop9" />
			<stop
   offset="0.29"
   stop-color="#4fabee"
   stop-opacity="1"
   id="stop11" />
			<stop
   offset="0.51"
   stop-color="#41a2e9"
   stop-opacity="1"
   id="stop13" />
			<stop
   offset="0.74"
   stop-color="#2a93e0"
   stop-opacity="1"
   id="stop15" />
			<stop
   offset="0.88"
   stop-color="#1988d9"
   stop-opacity="1"
   id="stop17" />
		</linearGradient>
	</defs>
	<g
   id="g78"
   transform="translate(-34.000261,-33.9976)">
		<title
   id="title21">Page-1</title>
		<g
   id="group14646-1"
   transform="translate(34,-34.0157)">
			<title
   id="title23">Azure AD Connect Health.14646</title>
			<g
   id="group14647-2">
				<title
   id="title25">Icon-identity-224</title>
				<g
   id="shape14648-3"
   transform="translate(0,-1.22113)">
					<title
   id="title27">Sheet.14648</title>
					<path
   d="M 3.21,99.38 28.08,115.9 53.42,99.32 56.6,103.11 28.08,121.87 0,103.11 Z"
   class="st1"
   id="path29"
   inkscape:connector-curvature="0"
   style="fill:#50e6ff;stroke:none;stroke-width:34;stroke-linecap:butt" />
				</g>
				<g
   id="shape14649-5"
   transform="translate(5.06243,-10.6367)">
					<title
   id="title32">Sheet.14649</title>
					<path
   d="M 0,106.67 23.02,78.65 46.51,106.71 23.02,121.87 Z"
   class="st2"
   id="path34"
   inkscape:connector-curvature="0"
   style="fill:#ffffff;stroke:none;stroke-width:34;stroke-linecap:butt" />
				</g>
				<g
   id="shape14650-7"
   transform="translate(5.06243,-10.6367)">
					<title
   id="title37">Sheet.14650</title>
					<path
   d="m 23.02,78.65 v 43.22 L 0,106.67 Z"
   class="st1"
   id="path39"
   inkscape:connector-curvature="0"
   style="fill:#50e6ff;stroke:none;stroke-width:34;stroke-linecap:butt" />
				</g>
				<g
   id="shape14651-9"
   transform="translate(28.0792,-10.6367)">
					<title
   id="title42">Sheet.14651</title>
					<path
   d="m 0,78.65 v 43.22 l 23.49,-15.16 z"
   class="st3"
   id="path44"
   inkscape:connector-curvature="0"
   style="fill:url(#grad0-12);stroke:none;stroke-width:34;stroke-linecap:butt" />
				</g>
				<g
   id="shape14652-13"
   transform="translate(28.0792,-10.6367)">
					<title
   id="title47">Sheet.14652</title>
					<path
   d="M 0,100.99 23.49,106.71 0,121.87 Z"
   class="st4"
   id="path49"
   inkscape:connector-curvature="0"
   style="fill:#53b1e0;stroke:none;stroke-width:34;stroke-linecap:butt" />
				</g>
				<g
   id="shape14653-15"
   transform="translate(5.06243,-10.6367)">
					<title
   id="title52">Sheet.14653</title>
					<path
   d="M 23.02,121.87 0,106.67 23.02,100.99 Z"
   class="st5"
   id="path54"
   inkscape:connector-curvature="0"
   style="fill:#9cebff;stroke:none;stroke-width:34;stroke-linecap:butt" />
				</g>
				<g
   id="shape14654-17"
   transform="translate(28.0792,-1.22113)">
					<title
   id="title57">Sheet.14654</title>
					<path
   d="M 0,121.87 28.52,103.11 25.34,99.32 0,115.9 Z"
   class="st6"
   id="path59"
   inkscape:connector-curvature="0"
   style="fill:url(#grad0-20);stroke:none;stroke-width:34;stroke-linecap:butt" />
				</g>
				<g
   id="shape14655-21"
   transform="translate(28.3936)">
					<title
   id="title62">Sheet.14655</title>
					<path
   d="m 14.21,121.87 c 13.77,-10.09 14.09,-15.84 14.09,-17.64 0,-2.57 -0.25,-9.25 -6.82,-9.64 A 7.13771,7.29465 -180 0 0 14.15,99.48 7.10627,7.26251 -180 0 0 6.92,94.46 C 0.35,94.94 0,101.66 0,104.23 c 0,1.8 0.41,7.55 14.06,17.55 z"
   class="st7"
   id="path64"
   inkscape:connector-curvature="0"
   style="fill:#f04049" />
					<path
   d="m 14.21,121.87 c 13.77,-10.09 14.09,-15.84 14.09,-17.64 0,-2.57 -0.25,-9.25 -6.82,-9.64 A 7.13771,7.29465 -180 0 0 14.15,99.48 7.10627,7.26251 -180 0 0 6.92,94.46 C 0.35,94.94 0,101.66 0,104.23 c 0,1.8 0.41,7.55 14.06,17.55"
   class="st8"
   id="path66"
   inkscape:connector-curvature="0"
   style="stroke:none;stroke-width:34;stroke-linecap:butt" />
				</g>
				<g
   id="shape14656-24"
   transform="translate(30.5632,-6.70233)">
					<title
   id="title69">Sheet.14656</title>
					<path
   d="m 26.13,109.91 h -6.29 a 0.534542,0.546295 -180 0 0 -0.440211,0.25708 L 17.42,113.6 a 0.251549,0.25708 0 0 1 -0.440211,0 L 13.99,108.07 a 0.503099,0.51416 -180 0 0 -0.94331,0 L 10.41,116.43 a 0.251549,0.25708 0 0 1 -0.471655,0 L 7.55,110.81 a 0.503099,0.51416 -180 0 0 -0.911866,0 L 3.49,116.65 a 0.503099,0.51416 0 0 1 -0.471655,0.28922 L 0,116.94 a 22.4193,22.9123 -180 0 0 1.51,2.09 h 2.61 a 0.534542,0.546295 -180 0 0 0.440211,-0.28921 L 6.79,114.5 l 3.15,7.04 a 0.503099,0.51416 -180 0 0 0.94331,0 l 3.13669,-9.42 2.68,5.34 a 0.503099,0.51416 -180 0 0 0.880422,0 L 20.72,112.25 a 0.534542,0.546295 0 0 1 0.440211,-0.25708 L 26.13,111.99 Z"
   class="st9"
   id="path71"
   inkscape:connector-curvature="0"
   style="fill:#ffffff" />
					<path
   d="m 26.13,109.91 h -6.29 a 0.534542,0.546295 -180 0 0 -0.440211,0.25708 L 17.42,113.6 a 0.251549,0.25708 0 0 1 -0.440211,0 L 13.99,108.07 a 0.503099,0.51416 -180 0 0 -0.94331,0 L 10.41,116.43 a 0.251549,0.25708 0 0 1 -0.471655,0 L 7.55,110.81 a 0.503099,0.51416 -180 0 0 -0.911866,0 L 3.49,116.65 a 0.503099,0.51416 0 0 1 -0.471655,0.28922 L 0,116.94 a 22.4193,22.9123 -180 0 0 1.51,2.09 h 2.61 a 0.534542,0.546295 -180 0 0 0.440211,-0.28921 L 6.79,114.5 l 3.15,7.04 a 0.503099,0.51416 -180 0 0 0.94331,0 l 3.13669,-9.42 2.68,5.34 a 0.503099,0.51416 -180 0 0 0.880422,0 L 20.72,112.25 a 0.534542,0.546295 0 0 1 0.440211,-0.25708 L 26.13,111.99"
   class="st8"
   id="path73"
   inkscape:connector-curvature="0"
   style="stroke:none;stroke-width:34;stroke-linecap:butt" />
				</g>
			</g>
		</g>
	</g>
</svg>

<svg xmlns="http://www.w3.org/2000/svg" xml:space="preserve" width="75.591" height="71.809" style="font-size:12px;overflow:visible;color-interpolation-filters:sRGB;fill-rule:evenodd;stroke-linecap:square;stroke-miterlimit:3" viewBox="0 0 56.693 53.857"><defs><linearGradient id="a" x1="0" x2="31.863" y1="57.983" y2="57.983" gradientTransform="scale(.73722 1.35644)" gradientUnits="userSpaceOnUse"><stop offset="0" stop-color="#1988d9"/><stop offset=".9" stop-color="#54aef0"/></linearGradient><linearGradient id="b" x1="0" x2="25.36" y1="111.696" y2="111.696" gradientTransform="scale(1.1246 .8892)" gradientUnits="userSpaceOnUse"><stop offset=".1" stop-color="#54aef0"/><stop offset=".29" stop-color="#4fabee"/><stop offset=".51" stop-color="#41a2e9"/><stop offset=".74" stop-color="#2a93e0"/><stop offset=".88" stop-color="#1988d9"/></linearGradient></defs><g transform="translate(-34 -33.998)"><title>Page-1</title><g transform="translate(34 -34.016)"><title>Azure AD Connect Health.14646</title><title>Icon-identity-224</title><g transform="translate(0 -1.221)"><title>Sheet.14648</title><path d="m3.21 99.38 24.87 16.52 25.34-16.58 3.18 3.79-28.52 18.76L0 103.11Z" style="fill:#50e6ff;stroke:none;stroke-width:34;stroke-linecap:butt"/></g><g transform="translate(5.062 -10.637)"><title>Sheet.14649</title><path d="m0 106.67 23.02-28.02 23.49 28.06-23.49 15.16Z" style="fill:#fff;stroke:none;stroke-width:34;stroke-linecap:butt"/></g><g transform="translate(5.062 -10.637)"><title>Sheet.14650</title><path d="M23.02 78.65v43.22L0 106.67Z" style="fill:#50e6ff;stroke:none;stroke-width:34;stroke-linecap:butt"/></g><g transform="translate(28.08 -10.637)"><title>Sheet.14651</title><path d="M0 78.65v43.22l23.49-15.16z" style="fill:url(#a);stroke:none;stroke-width:34;stroke-linecap:butt"/></g><g transform="translate(28.08 -10.637)"><title>Sheet.14652</title><path d="m0 100.99 23.49 5.72L0 121.87Z" style="fill:#53b1e0;stroke:none;stroke-width:34;stroke-linecap:butt"/></g><g transform="translate(5.062 -10.637)"><title>Sheet.14653</title><path d="M23.02 121.87 0 106.67l23.02-5.68Z" style="fill:#9cebff;stroke:none;stroke-width:34;stroke-linecap:butt"/></g><g transform="translate(28.08 -1.221)"><title>Sheet.14654</title><path d="m0 121.87 28.52-18.76-3.18-3.79L0 115.9Z" style="fill:url(#b);stroke:none;stroke-width:34;stroke-linecap:butt"/></g><g transform="translate(28.394)"><title>Sheet.14655</title><path d="M14.21 121.87c13.77-10.09 14.09-15.84 14.09-17.64 0-2.57-.25-9.25-6.82-9.64a7.138 7.295-180 0 0-7.33 4.89 7.106 7.263-180 0 0-7.23-5.02c-6.57.48-6.92 7.2-6.92 9.77 0 1.8.41 7.55 14.06 17.55z" style="fill:#f04049"/><path d="M14.21 121.87c13.77-10.09 14.09-15.84 14.09-17.64 0-2.57-.25-9.25-6.82-9.64a7.138 7.295-180 0 0-7.33 4.89 7.106 7.263-180 0 0-7.23-5.02c-6.57.48-6.92 7.2-6.92 9.77 0 1.8.41 7.55 14.06 17.55" style="stroke:none;stroke-width:34;stroke-linecap:butt"/></g><g transform="translate(30.563 -6.702)"><title>Sheet.14656</title><path d="M26.13 109.91h-6.29a.535.546-180 0 0-.44.257l-1.98 3.433a.252.257 0 0 1-.44 0l-2.99-5.53a.503.514-180 0 0-.943 0l-2.637 8.36a.252.257 0 0 1-.472 0l-2.388-5.62a.503.514-180 0 0-.912 0l-3.148 5.84a.503.514 0 0 1-.472.29H0a22.42 22.912-180 0 0 1.51 2.09h2.61a.535.546-180 0 0 .44-.29l2.23-4.24 3.15 7.04a.503.514-180 0 0 .943 0l3.137-9.42 2.68 5.34a.503.514-180 0 0 .88 0l3.14-5.21a.535.546 0 0 1 .44-.257l4.97-.003Z" style="fill:#fff"/><path d="M26.13 109.91h-6.29a.535.546-180 0 0-.44.257l-1.98 3.433a.252.257 0 0 1-.44 0l-2.99-5.53a.503.514-180 0 0-.943 0l-2.637 8.36a.252.257 0 0 1-.472 0l-2.388-5.62a.503.514-180 0 0-.912 0l-3.148 5.84a.503.514 0 0 1-.472.29H0a22.42 22.912-180 0 0 1.51 2.09h2.61a.535.546-180 0 0 .44-.29l2.23-4.24 3.15 7.04a.503.514-180 0 0 .943 0l3.137-9.42 2.68 5.34a.503.514-180 0 0 .88 0l3.14-5.21a.535.546 0 0 1 .44-.257l4.97-.003" style="stroke:none;stroke-width:34;stroke-linecap:butt"/></g></g></g></svg>
